images/logo.svg

<svg width="146" height="76" viewBox="0 0 146 76" fill="none" xmlns="http://www.w3.org/2000/svg">
<path fill-rule="evenodd" clip-rule="evenodd" d="M146 62C146 62 145.749 46.272 127.535 43.7706C126.762 43.9006 125.376 43.6619 124.529 43.6619H21.4706C9.61181 43.6619 0 33.888 0 21.8301C0 9.77391 9.61181 0 21.4706 0H124.529C136.386 0 146 9.77391 146 21.8301C146 22.4233 145.97 23.0077 145.925 23.5885C145.968 23.8985 146 24.2228 146 24.5791V62Z" fill="#3E80CE"/>
<path d="M28.528 33.288C26.8213 33.288 25.232 33.1066 23.76 32.744C22.3093 32.36 21.1146 31.8373 20.176 31.176C19.8133 30.8986 19.5466 30.6106 19.376 30.312C19.2266 30.0133 19.152 29.6293 19.152 29.16C19.152 28.52 19.344 27.9653 19.728 27.496C20.112 27.0266 20.56 26.792 21.072 26.792C21.3493 26.792 21.616 26.8346 21.872 26.92C22.128 27.0053 22.448 27.1653 22.832 27.4C23.7066 27.8906 24.5706 28.2426 25.424 28.456C26.2986 28.6693 27.28 28.776 28.368 28.776C29.6266 28.776 30.576 28.5946 31.216 28.232C31.8773 27.848 32.208 27.2933 32.208 26.568C32.208 26.0773 31.8986 25.6613 31.28 25.32C30.6826 24.9573 29.5306 24.6053 27.824 24.264C25.712 23.816 24.0586 23.2826 22.864 22.664C21.6693 22.0453 20.8266 21.32 20.336 20.488C19.8666 19.6346 19.632 18.6106 19.632 17.416C19.632 16.0506 20.0373 14.8133 20.848 13.704C21.6586 12.5946 22.768 11.7306 24.176 11.112C25.6053 10.472 27.2053 10.152 28.976 10.152C30.5333 10.152 31.92 10.3226 33.136 10.664C34.352 11.0053 35.4613 11.5386 36.464 12.264C36.848 12.5413 37.1146 12.84 37.264 13.16C37.4346 13.4586 37.52 13.832 37.52 14.28C37.52 14.92 37.328 15.4746 36.944 15.944C36.5813 16.4133 36.144 16.648 35.632 16.648C35.3546 16.648 35.0986 16.616 34.864 16.552C34.6293 16.4666 34.2986 16.296 33.872 16.04C33.7653 15.976 33.456 15.816 32.944 15.56C32.4533 15.2826 31.8666 15.0693 31.184 14.92C30.5226 14.7493 29.7973 14.664 29.008 14.664C27.92 14.664 27.0453 14.8773 26.384 15.304C25.7226 15.7093 25.392 16.2533 25.392 16.936C25.392 17.3413 25.5093 17.672 25.744 17.928C25.9786 18.184 26.416 18.44 27.056 18.696C27.696 18.9306 28.6453 19.176 29.904 19.432C31.952 19.88 33.5626 20.424 34.736 21.064C35.9093 21.6826 36.7413 22.408 37.232 23.24C37.7226 24.072 37.968 25.0533 37.968 26.184C37.968 27.592 37.5733 28.84 36.784 29.928C35.9946 30.9946 34.8853 31.8266 33.456 32.424C32.048 33 30.4053 33.288 28.528 33.288Z" fill="white"/>
<path d="M52.978 33.288C50.674 33.288 48.6686 32.8186 46.962 31.88C45.2766 30.92 43.9753 29.576 43.058 27.848C42.1406 26.0986 41.682 24.0506 41.682 21.704C41.682 19.3573 42.1406 17.32 43.058 15.592C43.9753 13.8426 45.2766 12.4986 46.962 11.56C48.6686 10.6213 50.674 10.152 52.978 10.152C55.282 10.152 57.2766 10.6213 58.962 11.56C60.6686 12.4986 61.97 13.8426 62.866 15.592C63.7833 17.32 64.242 19.3573 64.242 21.704C64.242 24.0506 63.7833 26.0986 62.866 27.848C61.9486 29.576 60.6366 30.92 58.93 31.88C57.2446 32.8186 55.2606 33.288 52.978 33.288ZM52.978 28.776C54.6846 28.776 56.018 28.1786 56.978 26.984C57.938 25.768 58.418 24.008 58.418 21.704C58.418 19.4 57.9273 17.6506 56.946 16.456C55.986 15.2613 54.6633 14.664 52.978 14.664C51.2713 14.664 49.938 15.2613 48.978 16.456C48.018 17.6293 47.538 19.3786 47.538 21.704C47.538 24.0293 48.018 25.7893 48.978 26.984C49.938 28.1786 51.2713 28.776 52.978 28.776Z" fill="white"/>
<path d="M81.4527 11.208C82.0074 10.568 82.6581 10.248 83.4047 10.248C84.1087 10.248 84.7381 10.5253 85.2927 11.08C85.8687 11.6133 86.1567 12.232 86.1567 12.936C86.1567 13.5546 85.9221 14.1413 85.4527 14.696L78.7327 22.472V30.28C78.7327 31.2186 78.4554 31.944 77.9007 32.456C77.3674 32.9466 76.6741 33.192 75.8207 33.192C74.9461 33.192 74.2314 32.9466 73.6767 32.456C73.1221 31.944 72.8447 31.2186 72.8447 30.28V22.472L66.1887 14.696C65.6981 14.1413 65.4527 13.544 65.4527 12.904C65.4527 12.2 65.7301 11.5813 66.2847 11.048C66.8394 10.5146 67.4687 10.248 68.1727 10.248C68.9194 10.248 69.5701 10.568 70.1247 11.208L75.7887 17.928L81.4527 11.208Z" fill="white"/>
<path d="M91.9292 33C91.0546 33 90.3826 32.7653 89.9132 32.296C89.4439 31.8266 89.2092 31.144 89.2092 30.248V13.16C89.2092 12.2853 89.4652 11.592 89.9772 11.08C90.5106 10.5466 91.2252 10.28 92.1212 10.28C93.0386 10.28 93.7639 10.5466 94.2972 11.08C94.8306 11.592 95.0972 12.2853 95.0972 13.16V28.232H102.457C104.313 28.232 105.241 29.032 105.241 30.632C105.241 31.4426 105.007 32.04 104.537 32.424C104.089 32.808 103.396 33 102.457 33H91.9292Z" fill="white"/>
<path d="M111.202 33C110.327 33 109.655 32.7653 109.186 32.296C108.716 31.8266 108.482 31.1546 108.482 30.28V13.16C108.482 12.2853 108.716 11.6133 109.186 11.144C109.655 10.6746 110.327 10.44 111.202 10.44H122.274C123.191 10.44 123.884 10.632 124.354 11.016C124.823 11.4 125.058 11.9546 125.058 12.68C125.058 14.216 124.13 14.984 122.274 14.984H114.21V19.272H121.634C123.49 19.272 124.418 20.0293 124.418 21.544C124.418 22.2693 124.183 22.824 123.714 23.208C123.244 23.592 122.551 23.784 121.634 23.784H114.21V28.456H122.274C124.13 28.456 125.058 29.224 125.058 30.76C125.058 31.4853 124.823 32.04 124.354 32.424C123.884 32.808 123.191 33 122.274 33H111.202Z" fill="white"/>
<path d="M54.688 66.252C53.668 66.252 52.678 66.126 51.718 65.874C50.758 65.622 49.978 65.286 49.378 64.866L50.548 62.238C51.112 62.61 51.766 62.91 52.51 63.138C53.254 63.366 53.986 63.48 54.706 63.48C56.074 63.48 56.758 63.138 56.758 62.454C56.758 62.094 56.56 61.83 56.164 61.662C55.78 61.482 55.156 61.296 54.292 61.104C53.344 60.9 52.552 60.684 51.916 60.456C51.28 60.216 50.734 59.838 50.278 59.322C49.822 58.806 49.594 58.11 49.594 57.234C49.594 56.466 49.804 55.776 50.224 55.164C50.644 54.54 51.268 54.048 52.096 53.688C52.936 53.328 53.962 53.148 55.174 53.148C56.002 53.148 56.818 53.244 57.622 53.436C58.426 53.616 59.134 53.886 59.746 54.246L58.648 56.892C57.448 56.244 56.284 55.92 55.156 55.92C54.448 55.92 53.932 56.028 53.608 56.244C53.284 56.448 53.122 56.718 53.122 57.054C53.122 57.39 53.314 57.642 53.698 57.81C54.082 57.978 54.7 58.152 55.552 58.332C56.512 58.536 57.304 58.758 57.928 58.998C58.564 59.226 59.11 59.598 59.566 60.114C60.034 60.618 60.268 61.308 60.268 62.184C60.268 62.94 60.058 63.624 59.638 64.236C59.218 64.848 58.588 65.34 57.748 65.712C56.908 66.072 55.888 66.252 54.688 66.252ZM69.1683 66.252C67.8363 66.252 66.6363 65.97 65.5683 65.406C64.5123 64.842 63.6783 64.062 63.0663 63.066C62.4663 62.07 62.1663 60.948 62.1663 59.7C62.1663 58.452 62.4663 57.33 63.0663 56.334C63.6783 55.338 64.5123 54.558 65.5683 53.994C66.6363 53.43 67.8363 53.148 69.1683 53.148C70.5003 53.148 71.6943 53.43 72.7503 53.994C73.8183 54.558 74.6523 55.338 75.2523 56.334C75.8643 57.33 76.1703 58.452 76.1703 59.7C76.1703 60.948 75.8643 62.07 75.2523 63.066C74.6523 64.062 73.8183 64.842 72.7503 65.406C71.6943 65.97 70.5003 66.252 69.1683 66.252ZM69.1683 63.3C69.8043 63.3 70.3803 63.15 70.8963 62.85C71.4123 62.55 71.8203 62.13 72.1203 61.59C72.4203 61.038 72.5703 60.408 72.5703 59.7C72.5703 58.992 72.4203 58.368 72.1203 57.828C71.8203 57.276 71.4123 56.85 70.8963 56.55C70.3803 56.25 69.8043 56.1 69.1683 56.1C68.5323 56.1 67.9563 56.25 67.4403 56.55C66.9243 56.85 66.5163 57.276 66.2163 57.828C65.9163 58.368 65.7663 58.992 65.7663 59.7C65.7663 60.408 65.9163 61.038 66.2163 61.59C66.5163 62.13 66.9243 62.55 67.4403 62.85C67.9563 63.15 68.5323 63.3 69.1683 63.3ZM89.4875 63.174V66H78.2015V63.768L84.5555 56.226H78.3635V53.4H89.2175V55.632L82.8635 63.174H89.4875ZM91.9483 53.4H97.9063C99.2863 53.4 100.51 53.658 101.578 54.174C102.646 54.69 103.474 55.422 104.062 56.37C104.65 57.318 104.944 58.428 104.944 59.7C104.944 60.972 104.65 62.082 104.062 63.03C103.474 63.978 102.646 64.71 101.578 65.226C100.51 65.742 99.2863 66 97.9063 66H91.9483V53.4ZM97.7623 63.156C98.8423 63.156 99.7063 62.85 100.354 62.238C101.014 61.626 101.344 60.78 101.344 59.7C101.344 58.62 101.014 57.774 100.354 57.162C99.7063 56.55 98.8423 56.244 97.7623 56.244H95.5123V63.156H97.7623ZM107.719 53.4L111.283 53.4V66H107.719V53.4ZM119.579 61.428L118.247 62.85V66H114.719V53.4H118.247V58.638L123.125 53.4H127.049L121.901 58.98L127.319 66H123.179L119.579 61.428Z" fill="#3E80CE"/>
<path d="M22.012 65H37V51C37 50.4696 36.7893 49.9609 36.4142 49.5858C36.0391 49.2107 35.5304 49 35 49H22C20.794 49 19 49.799 19 52V66C19 68.201 20.794 69 22 69H37V67H22.012C21.55 66.988 21 66.805 21 66C21 65.195 21.55 65.012 22.012 65ZM24 53H33V55H24V53Z" fill="#3E80CE"/>
</svg>

<svg width="146" height="76" fill="none" xmlns="http://www.w3.org/2000/svg"><path fill-rule="evenodd" clip-rule="evenodd" d="M146 62s-.251-15.728-18.465-18.23c-.773.13-2.159-.108-3.006-.108H21.471C9.61 43.662 0 33.888 0 21.83 0 9.774 9.612 0 21.47 0h103.06C136.386 0 146 9.774 146 21.83c0 .593-.03 1.178-.075 1.759.043.31.075.634.075.99V62z" fill="#3E80CE"/><path d="M28.528 33.288c-1.707 0-3.296-.181-4.768-.544-1.45-.384-2.645-.907-3.584-1.568-.363-.277-.63-.565-.8-.864-.15-.299-.224-.683-.224-1.152 0-.64.192-1.195.576-1.664.384-.47.832-.704 1.344-.704.277 0 .544.043.8.128s.576.245.96.48c.875.49 1.739.843 2.592 1.056.875.213 1.856.32 2.944.32 1.259 0 2.208-.181 2.848-.544.661-.384.992-.939.992-1.664 0-.49-.31-.907-.928-1.248-.597-.363-1.75-.715-3.456-1.056-2.112-.448-3.765-.981-4.96-1.6-1.195-.619-2.037-1.344-2.528-2.176-.47-.853-.704-1.877-.704-3.072a6.14 6.14 0 011.216-3.712c.81-1.11 1.92-1.973 3.328-2.592 1.43-.64 3.03-.96 4.8-.96 1.557 0 2.944.17 4.16.512a10.45 10.45 0 013.328 1.6c.384.277.65.576.8.896.17.299.256.672.256 1.12 0 .64-.192 1.195-.576 1.664-.363.47-.8.704-1.312.704-.277 0-.533-.032-.768-.096-.235-.085-.565-.256-.992-.512a20.825 20.825 0 00-.928-.48c-.49-.277-1.077-.49-1.76-.64a8.697 8.697 0 00-2.176-.256c-1.088 0-1.963.213-2.624.64-.661.405-.992.95-.992 1.632 0 .405.117.736.352.992s.672.512 1.312.768c.64.235 1.59.48 2.848.736 2.048.448 3.659.992 4.832 1.632 1.173.619 2.005 1.344 2.496 2.176.49.832.736 1.813.736 2.944 0 1.408-.395 2.656-1.184 3.744-.79 1.067-1.899 1.899-3.328 2.496-1.408.576-3.05.864-4.928.864zm24.45 0c-2.304 0-4.31-.47-6.016-1.408a9.871 9.871 0 01-3.904-4.032c-.917-1.75-1.376-3.797-1.376-6.144s.459-4.384 1.376-6.112c.917-1.75 2.219-3.093 3.904-4.032 1.707-.939 3.712-1.408 6.016-1.408s4.299.47 5.984 1.408c1.707.939 3.008 2.283 3.904 4.032.917 1.728 1.376 3.765 1.376 6.112s-.459 4.395-1.376 6.144a9.817 9.817 0 01-3.936 4.032c-1.685.939-3.67 1.408-5.952 1.408zm0-4.512c1.707 0 3.04-.597 4-1.792.96-1.216 1.44-2.976 1.44-5.28 0-2.304-.49-4.053-1.472-5.248-.96-1.195-2.283-1.792-3.968-1.792-1.707 0-3.04.597-4 1.792-.96 1.173-1.44 2.923-1.44 5.248s.48 4.085 1.44 5.28c.96 1.195 2.293 1.792 4 1.792zm28.475-17.568c.554-.64 1.205-.96 1.952-.96.704 0 1.333.277 1.888.832.576.533.864 1.152.864 1.856 0 .619-.235 1.205-.704 1.76l-6.72 7.776v7.808c0 .939-.278 1.664-.832 2.176-.534.49-1.227.736-2.08.736-.875 0-1.59-.245-2.144-.736-.555-.512-.832-1.237-.832-2.176v-7.808l-6.656-7.776c-.49-.555-.736-1.152-.736-1.792 0-.704.277-1.323.832-1.856.554-.533 1.184-.8 1.888-.8.746 0 1.397.32 1.952.96l5.664 6.72 5.664-6.72zM91.93 33c-.875 0-1.547-.235-2.017-.704-.47-.47-.704-1.152-.704-2.048V13.16c0-.875.256-1.568.768-2.08.534-.533 1.248-.8 2.144-.8.918 0 1.643.267 2.176.8.534.512.8 1.205.8 2.08v15.072h7.36c1.856 0 2.784.8 2.784 2.4 0 .81-.234 1.408-.704 1.792-.448.384-1.141.576-2.08.576H91.929zm19.272 0c-.875 0-1.547-.235-2.016-.704-.47-.47-.704-1.141-.704-2.016V13.16c0-.875.234-1.547.704-2.016.469-.47 1.141-.704 2.016-.704h11.072c.917 0 1.61.192 2.08.576.469.384.704.939.704 1.664 0 1.536-.928 2.304-2.784 2.304h-8.064v4.288h7.424c1.856 0 2.784.757 2.784 2.272 0 .725-.235 1.28-.704 1.664-.47.384-1.163.576-2.08.576h-7.424v4.672h8.064c1.856 0 2.784.768 2.784 2.304 0 .725-.235 1.28-.704 1.664-.47.384-1.163.576-2.08.576h-11.072z" fill="#fff"/><path d="M54.688 66.252c-1.02 0-2.01-.126-2.97-.378-.96-.252-1.74-.588-2.34-1.008l1.17-2.628a7.57 7.57 0 001.962.9 7.469 7.469 0 002.196.342c1.368 0 2.052-.342 2.052-1.026 0-.36-.198-.624-.594-.792-.384-.18-1.008-.366-1.872-.558-.948-.204-1.74-.42-2.376-.648a4.078 4.078 0 01-1.638-1.134c-.456-.516-.684-1.212-.684-2.088 0-.768.21-1.458.63-2.07.42-.624 1.044-1.116 1.872-1.476.84-.36 1.866-.54 3.078-.54.828 0 1.644.096 2.448.288.804.18 1.512.45 2.124.81l-1.098 2.646c-1.2-.648-2.364-.972-3.492-.972-.708 0-1.224.108-1.548.324-.324.204-.486.474-.486.81 0 .336.192.588.576.756.384.168 1.002.342 1.854.522.96.204 1.752.426 2.376.666.636.228 1.182.6 1.638 1.116.468.504.702 1.194.702 2.07 0 .756-.21 1.44-.63 2.052-.42.612-1.05 1.104-1.89 1.476-.84.36-1.86.54-3.06.54zm14.48 0c-1.332 0-2.532-.282-3.6-.846a6.438 6.438 0 01-2.502-2.34c-.6-.996-.9-2.118-.9-3.366 0-1.248.3-2.37.9-3.366a6.438 6.438 0 012.502-2.34c1.068-.564 2.268-.846 3.6-.846 1.332 0 2.526.282 3.582.846 1.068.564 1.902 1.344 2.502 2.34.612.996.918 2.118.918 3.366 0 1.248-.306 2.37-.918 3.366-.6.996-1.434 1.776-2.502 2.34-1.056.564-2.25.846-3.582.846zm0-2.952c.636 0 1.212-.15 1.728-.45.516-.3.924-.72 1.224-1.26.3-.552.45-1.182.45-1.89s-.15-1.332-.45-1.872a3.222 3.222 0 00-1.224-1.278 3.375 3.375 0 00-1.728-.45c-.636 0-1.212.15-1.728.45-.516.3-.924.726-1.224 1.278-.3.54-.45 1.164-.45 1.872 0 .708.15 1.338.45 1.89.3.54.708.96 1.224 1.26.516.3 1.092.45 1.728.45zm20.32-.126V66H78.2v-2.232l6.355-7.542h-6.192V53.4h10.853v2.232l-6.353 7.542h6.623zm2.46-9.774h5.958c1.38 0 2.604.258 3.672.774s1.896 1.248 2.484 2.196c.588.948.882 2.058.882 3.33 0 1.272-.294 2.382-.882 3.33-.588.948-1.416 1.68-2.484 2.196-1.068.516-2.292.774-3.672.774h-5.958V53.4zm5.814 9.756c1.08 0 1.944-.306 2.592-.918.66-.612.99-1.458.99-2.538 0-1.08-.33-1.926-.99-2.538-.648-.612-1.512-.918-2.592-.918h-2.25v6.912h2.25zm9.957-9.756h3.564V66h-3.564V53.4zm11.86 8.028l-1.332 1.422V66h-3.528V53.4h3.528v5.238l4.878-5.238h3.924l-5.148 5.58 5.418 7.02h-4.14l-3.6-4.572zM22.012 65H37V51a2 2 0 00-2-2H22c-1.206 0-3 .799-3 3v14c0 2.201 1.794 3 3 3h15v-2H22.012C21.55 66.988 21 66.805 21 66c0-.805.55-.988 1.012-1zM24 53h9v2h-9v-2z" fill="#3E80CE"/></svg>
